X: 19185
T: Isabel's
R: hornpipe
M: 4/4
K: Gmajor
z6|:"D"(3DEF|"G"GB "D"Ac "G"Bd "C"ce|"D"df "C"ge "D"d2 df|
"G"ga bg "C#dim"ag fe|"Am"ag fe "D"d2 (3def|"G"gd Bd "Em"gd Bd|
"Am"ed cB "D"A2 (3ABc|"Am"FA (cde "Am6"FA (cef|"G"d2 "D"f2 "G"g2:|
|:z f|"Em"gf ea "Bm"fd Be|"A"^cA (3ABc "D"d2 (3gfe|
"A7"^cA ec ge ag|"B7"fd (3def "Em"g2 (3def|"G"ga bg "C#dim"ag fe|
"Am"ed cB "D"A2 (3AB^c|"G"dA BG "A"AG FE|"D"F2 D2 D2:|z2|

